SVG_Azure_Grouped/Data/Data Factory.svg

<?xml version="1.0" encoding="UTF-8" standalone="no"?>
<!-- Generated by Microsoft Visio, SVG Export Data Factory.svg Page-1 -->

<svg
   xmlns:dc="http://purl.org/dc/elements/1.1/"
   xmlns:cc="http://creativecommons.org/ns#"
   xmlns:rdf="http://www.w3.org/1999/02/22-rdf-syntax-ns#"
   xmlns:svg="http://www.w3.org/2000/svg"
   xmlns="http://www.w3.org/2000/svg"
   xmlns:sodipodi="http://sodipodi.sourceforge.net/DTD/sodipodi-0.dtd"
   xmlns:inkscape="http://www.inkscape.org/namespaces/inkscape"
   width="0.78745747in"
   height="0.7874285in"
   viewBox="0 0 56.6973 56.695162"
   xml:space="preserve"
   class="st7"
   version="1.1"
   id="svg70"
   sodipodi:docname="Data Factory.svg"
   style="font-size:12px;overflow:visible;color-interpolation-filters:sRGB;fill:none;fill-rule:evenodd;stroke-linecap:square;stroke-miterlimit:3"
   inkscape:version="0.92.5 (2060ec1f9f, 2020-04-08)"><metadata
   id="metadata74"><rdf:RDF><cc:Work
       rdf:about=""><dc:format>image/svg+xml</dc:format><dc:type
         rdf:resource="http://purl.org/dc/dcmitype/StillImage" /></cc:Work></rdf:RDF></metadata><sodipodi:namedview
   pagecolor="#ffffff"
   bordercolor="#666666"
   borderopacity="1"
   objecttolerance="10"
   gridtolerance="10"
   guidetolerance="10"
   inkscape:pageopacity="0"
   inkscape:pageshadow="2"
   inkscape:window-width="640"
   inkscape:window-height="480"
   id="namedview72"
   showgrid="false"
   inkscape:zoom="1.4193119"
   inkscape:cx="37.795721"
   inkscape:cy="37.786519"
   inkscape:window-x="0"
   inkscape:window-y="0"
   inkscape:window-maximized="0"
   inkscape:current-layer="svg70" />
	<style
   type="text/css"
   id="style2">
	<![CDATA[
		.st1 {fill:#005ba1;stroke:none;stroke-linecap:butt;stroke-width:34}
		.st2 {fill:url(#grad0-8);stroke:none;stroke-linecap:butt;stroke-width:34}
		.st3 {fill:#ffffff;stroke:none;stroke-linecap:butt;stroke-width:34}
		.st4 {fill:#eaeaea;stroke:none;stroke-linecap:butt;stroke-width:34}
		.st5 {fill:#50e6ff;stroke:none;stroke-linecap:butt;stroke-width:34}
		.st6 {fill:#198ab3;stroke:none;stroke-linecap:butt;stroke-width:34}
		.st7 {fill:none;fill-rule:evenodd;font-size:12px;overflow:visible;stroke-linecap:square;stroke-miterlimit:3}
	]]>
	</style>

	<defs
   id="Patterns_And_Gradients">
		<linearGradient
   id="grad0-8"
   x1="-0.00038795205"
   y1="54.077435"
   x2="38.280606"
   y2="54.077435"
   gradientTransform="scale(0.74058389,1.3502859)"
   gradientUnits="userSpaceOnUse">
			<stop
   offset="0"
   stop-color="#005ba1"
   stop-opacity="1"
   id="stop4" />
			<stop
   offset="0.07"
   stop-color="#0060a9"
   stop-opacity="1"
   id="stop6" />
			<stop
   offset="0.36"
   stop-color="#0071c8"
   stop-opacity="1"
   id="stop8" />
			<stop
   offset="0.52"
   stop-color="#0078d4"
   stop-opacity="1"
   id="stop10" />
			<stop
   offset="0.64"
   stop-color="#0074cd"
   stop-opacity="1"
   id="stop12" />
			<stop
   offset="0.81"
   stop-color="#006abb"
   stop-opacity="1"
   id="stop14" />
			<stop
   offset="0.99"
   stop-color="#005ba1"
   stop-opacity="1"
   id="stop16" />
		</linearGradient>
	</defs>
	<g
   id="g68"
   transform="translate(-34.000013,-33.9994)">
		<title
   id="title20">Page-1</title>
		<g
   id="group19501-1"
   transform="translate(34.0003,-34.0157)">
			<title
   id="title22">Data Factory.19501</title>
			<g
   id="group19502-2">
				<title
   id="title24">Icon-analytics-146</title>
				<g
   id="shape19503-3"
   transform="translate(14.5067)">
					<title
   id="title26">path4</title>
					<path
   d="M 28.01,101.3 V 88.26 A 0.466883,0.466883 -180 0 0 27.209629,87.926512 L 13.87,101.26 0,115.14 v 9.57 h 40.29 a 1.86753,1.86753 -180 0 0 1.9,-1.9 V 88.26 a 0.466883,0.466883 -180 0 0 -0.800371,-0.333488 z"
   class="st1"
   id="path28"
   inkscape:connector-curvature="0"
   style="fill:#005ba1;stroke:none;stroke-width:34;stroke-linecap:butt" />
				</g>
				<g
   id="shape19504-5">
					<title
   id="title31">path6</title>
					<path
   d="M 14.17,78.29 C 6.34,78.29 0,75.99 0,73.02 v 49.79 a 1.86753,1.86753 -180 0 0 1.9,1.9 H 28.35 V 73.02 c 0,2.97 -6.34,5.27 -14.18,5.27 z"
   class="st2"
   id="path33"
   inkscape:connector-curvature="0"
   style="fill:url(#grad0-8);stroke:none;stroke-width:34;stroke-linecap:butt" />
				</g>
				<g
   id="shape19505-9"
   transform="translate(41.3858,-7.53682)">
					<title
   id="title36">rect8</title>
					<path
   d="m 0,123.77 a 0.933787,0.933787 -180 0 0 0.933766,0.93377 L 6.64,124.71 a 0.933787,0.933787 -180 0 0 0.933766,-0.93377 L 7.57,118.07 A 0.933787,0.933787 -180 0 0 6.636234,117.13623 L 0.93,117.14 a 0.933787,0.933787 -180 0 0 -0.933766,0.93377 z"
   class="st3"
   id="path38"
   inkscape:connector-curvature="0"
   style="fill:#ffffff;stroke:none;stroke-width:34;stroke-linecap:butt" />
				</g>
				<g
   id="shape19506-11"
   transform="translate(28.2464,-7.53682)">
					<title
   id="title41">rect10</title>
					<path
   d="m 0,123.77 a 0.933787,0.933787 -180 0 0 0.933766,0.93377 L 6.64,124.71 a 0.933787,0.933787 -180 0 0 0.933766,-0.93377 L 7.57,118.07 A 0.933787,0.933787 -180 0 0 6.636234,117.13623 L 0.93,117.14 a 0.933787,0.933787 -180 0 0 -0.933766,0.93377 z"
   class="st3"
   id="path43"
   inkscape:connector-curvature="0"
   style="fill:#ffffff;stroke:none;stroke-width:34;stroke-linecap:butt" />
				</g>
				<g
   id="shape19507-13"
   transform="translate(15.107,-7.53682)">
					<title
   id="title46">rect12</title>
					<path
   d="m 0,123.77 a 0.933787,0.933787 -180 0 0 0.933766,0.93377 L 6.64,124.71 a 0.933787,0.933787 -180 0 0 0.933766,-0.93377 L 7.57,118.07 A 0.933787,0.933787 -180 0 0 6.636234,117.13623 L 0.93,117.14 a 0.933787,0.933787 -180 0 0 -0.933766,0.93377 z"
   class="st3"
   id="path48"
   inkscape:connector-curvature="0"
   style="fill:#ffffff;stroke:none;stroke-width:34;stroke-linecap:butt" />
				</g>
				<g
   id="shape19508-15"
   transform="translate(0,-46.5549)">
					<title
   id="title51">path14</title>
					<path
   d="m 28.35,119.57 c 0,2.84 -6.34,5.14 -14.18,5.14 -7.83,0 -14.17,-2.17 -14.17,-5.14 0,-2.97 6.34,-5 14.17,-5 7.84,0 14.18,2.3 14.18,5 z"
   class="st4"
   id="path53"
   inkscape:connector-curvature="0"
   style="fill:#eaeaea;stroke:none;stroke-width:34;stroke-linecap:butt" />
				</g>
				<g
   id="shape19509-17"
   transform="translate(3.26818,-48.6559)">
					<title
   id="title56">path16</title>
					<path
   d="m 21.74,121.37 c 0,1.84 -4.87,3.34 -10.87,3.34 -6,0 -10.87,-1.44 -10.87,-3.34 0,-1.9 5.07,-3.23 10.91,-3.23 5.83,0 10.83,1.43 10.83,3.23 z"
   class="st5"
   id="path58"
   inkscape:connector-curvature="0"
   style="fill:#50e6ff;stroke:none;stroke-width:34;stroke-linecap:butt" />
				</g>
				<g
   id="shape19510-19"
   transform="translate(5.56925,-48.7226)">
					<title
   id="title61">path18</title>
					<path
   d="m 8.6,122.21 a 26.9125,26.9125 -180 0 0 -8.6,1.23 25.4785,25.4785 -180 0 0 8.6,1.27 25.4785,25.4785 -180 0 0 8.61,-1.27 26.9125,26.9125 -180 0 0 -8.61,-1.23 z"
   class="st6"
   id="path63"
   inkscape:connector-curvature="0"
   style="fill:#198ab3;stroke:none;stroke-width:34;stroke-linecap:butt" />
				</g>
			</g>
		</g>
	</g>
</svg>

<?xml version="1.0" encoding="UTF-8" standalone="no"?>
<!DOCTYPE svg PUBLIC "-//W3C//DTD SVG 1.1//EN" "http://www.w3.org/Graphics/SVG/1.1/DTD/svg11.dtd">
<!-- Generated by Microsoft Visio, SVG Export Data Factory.svg Page-1 -->
<svg xmlns="http://www.w3.org/2000/svg" xmlns:xlink="http://www.w3.org/1999/xlink" xmlns:ev="http://www.w3.org/2001/xml-events"
		width="1.73185in" height="1.73206in" viewBox="0 0 124.694 124.709" xml:space="preserve" color-interpolation-filters="sRGB"
		class="st7">
	<style type="text/css">
	<![CDATA[
		.st1 {fill:#005ba1;stroke:none;stroke-linecap:butt;stroke-width:34}
		.st2 {fill:url(#grad0-8);stroke:none;stroke-linecap:butt;stroke-width:34}
		.st3 {fill:#ffffff;stroke:none;stroke-linecap:butt;stroke-width:34}
		.st4 {fill:#eaeaea;stroke:none;stroke-linecap:butt;stroke-width:34}
		.st5 {fill:#50e6ff;stroke:none;stroke-linecap:butt;stroke-width:34}
		.st6 {fill:#198ab3;stroke:none;stroke-linecap:butt;stroke-width:34}
		.st7 {fill:none;fill-rule:evenodd;font-size:12px;overflow:visible;stroke-linecap:square;stroke-miterlimit:3}
	]]>
	</style>

	<defs id="Patterns_And_Gradients">
		<linearGradient id="grad0-8" x1="0" y1="0" x2="1" y2="0" gradientTransform="rotate(0 0.5 0.5)">
			<stop offset="0" stop-color="#005ba1" stop-opacity="1"/>
			<stop offset="0.07" stop-color="#0060a9" stop-opacity="1"/>
			<stop offset="0.36" stop-color="#0071c8" stop-opacity="1"/>
			<stop offset="0.52" stop-color="#0078d4" stop-opacity="1"/>
			<stop offset="0.64" stop-color="#0074cd" stop-opacity="1"/>
			<stop offset="0.81" stop-color="#006abb" stop-opacity="1"/>
			<stop offset="0.99" stop-color="#005ba1" stop-opacity="1"/>
		</linearGradient>
	</defs>
	<g>
		<title>Page-1</title>
		<g id="group19052-1" transform="translate(34.0003,-34.0157)">
			<title>Data Factory.19052</title>
			<g id="group19053-2">
				<title>Icon-analytics-146</title>
				<g id="shape19054-3" transform="translate(14.5067,0)">
					<title>path4</title>
					<path d="M28.01 101.3 L28.01 88.26 a0.466883 0.466883 -180 0 0 -0.800371 -0.333488 L13.87 101.26 L0 115.14 L0
								 124.71 L40.29 124.71 A1.86753 1.86753 -180 0 0 42.19 122.81 L42.19 88.26 a0.466883 0.466883 -180
								 0 0 -0.800371 -0.333488 L28.01 101.3 Z" class="st1"/>
				</g>
				<g id="shape19055-5">
					<title>path6</title>
					<path d="M14.17 78.29 C6.34 78.29 0 75.99 0 73.02 L0 122.81 A1.86753 1.86753 -180 0 0 1.9 124.71 L28.35 124.71
								 L28.35 73.02 C28.35 75.99 22.01 78.29 14.17 78.29 Z" class="st2"/>
				</g>
				<g id="shape19056-9" transform="translate(41.3858,-7.53682)">
					<title>rect8</title>
					<path d="M0 123.77 a0.933787 0.933787 -180 0 0 0.933766 0.933766 L6.64 124.71 a0.933787 0.933787 -180 0 0 0.933766
								 -0.933766 L7.57 118.07 a0.933787 0.933787 -180 0 0 -0.933766 -0.933766 L0.93 117.14 a0.933787 0.933787
								 -180 0 0 -0.933766 0.933766 L0 123.77 Z" class="st3"/>
				</g>
				<g id="shape19057-11" transform="translate(28.2464,-7.53682)">
					<title>rect10</title>
					<path d="M0 123.77 a0.933787 0.933787 -180 0 0 0.933766 0.933766 L6.64 124.71 a0.933787 0.933787 -180 0 0 0.933766
								 -0.933766 L7.57 118.07 a0.933787 0.933787 -180 0 0 -0.933766 -0.933766 L0.93 117.14 a0.933787 0.933787
								 -180 0 0 -0.933766 0.933766 L0 123.77 Z" class="st3"/>
				</g>
				<g id="shape19058-13" transform="translate(15.107,-7.53682)">
					<title>rect12</title>
					<path d="M0 123.77 a0.933787 0.933787 -180 0 0 0.933766 0.933766 L6.64 124.71 a0.933787 0.933787 -180 0 0 0.933766
								 -0.933766 L7.57 118.07 a0.933787 0.933787 -180 0 0 -0.933766 -0.933766 L0.93 117.14 a0.933787 0.933787
								 -180 0 0 -0.933766 0.933766 L0 123.77 Z" class="st3"/>
				</g>
				<g id="shape19059-15" transform="translate(0,-46.5549)">
					<title>path14</title>
					<path d="M28.35 119.57 C28.35 122.41 22.01 124.71 14.17 124.71 C6.34 124.71 0 122.54 0 119.57 C0 116.6 6.34 114.57
								 14.17 114.57 C22.01 114.57 28.35 116.87 28.35 119.57 Z" class="st4"/>
				</g>
				<g id="shape19060-17" transform="translate(3.26818,-48.6559)">
					<title>path16</title>
					<path d="M21.74 121.37 C21.74 123.21 16.87 124.71 10.87 124.71 C4.87 124.71 0 123.27 0 121.37 C0 119.47 5.07
								 118.14 10.91 118.14 C16.74 118.14 21.74 119.57 21.74 121.37 Z" class="st5"/>
				</g>
				<g id="shape19061-19" transform="translate(5.56925,-48.7226)">
					<title>path18</title>
					<path d="M8.6 122.21 A26.9125 26.9125 -180 0 0 0 123.44 A25.4785 25.4785 -180 0 0 8.6 124.71 A25.4785 25.4785
								 -180 0 0 17.21 123.44 A26.9125 26.9125 -180 0 0 8.6 122.21 Z" class="st6"/>
				</g>
			</g>
		</g>
	</g>
</svg>
